X: 35284
T: Rose Of Corrawallen
R: jig
M: 6/8
K: Amixolydian
|:EcB Adc|Bfd e2d|cde ged|cAE BGD
EcB Adc|Bfd e2d|cde gec|1 BGE A2F:|2 BGE A2 c||
|:d2f fed|fed e2c|d ~f3ed|cAE BGD
EcB Adc|Bfd e2d|cde gec|1 BGE A2c:|2 BGE A3||

